X: 17
T: No_25_My_Grandfather_Gave_Me_Everything.krn
N: Derived from No_25_My_Grandfather_Gave_Me_Everything.krn
%%abc-version 2.0
%%abcx-abcm2ps-target-version 5.9.1 (29 Sep 2008)
%%abc-creator hum2abc beta
%%abcx-conversion-date 2019/03/15 08:27:55
%%humdrum-veritas 642041356
%%humdrum-veritas-data 1991647835
%%linebreak <none>
%%barnumbers 0
L: 1/8
M: 2/4
K: D clef=bass
[K:clef=bass][M:2/4]ED/D/D2 | 
DD/D/ D z | 
D3/A,/A,2 | 
A,A,/A,/ A, z | 
A,G,/G,/G,2 | 
G,3/G,/ G, z | 
(G,3/E,/)E,2 | 
E,E,/E,/(E,2 | 
D,3/)D,/ D, z | 
D,3/D,/D,2 | 
D,3/D,/ D, z | 
A,G,/G,/G,2 | 
G,3/G,/ G,G,/ z/ | 
G,3/E,/ E, z | 
E,3/E,/ E,(E, | 
D,3/)D,/D,2 | 
D,3/D,/ D, z | 
E,D,/D,/D,2 | 
D,3/D,/ D,D,/ z/ | 
E,D,/D,/D,2 | 
E,3/D,/D,2 | 
A,,2A,, z |]  



